X: 37160
T: Sir Aldingar
R: jig
M: 6/8
K: Aminor
|:~A,3 EDC|DED DCD|E2 ^F GFE|(3ABc B AGF|
~E3 GEC|DED DCD|E2 ^F GFE|1 ABA AEC:|2 ABA A2 E||
|:A2 B cBA|d2 c BAG|A2 B cBA|~B3 A2 E|
A2 B cBA|d2 c BAG|A2 G E^FG|1 ABA A2 E:|2 ABA AGE||

